logos/snowpack.svg

<?xml version="1.0" encoding="UTF-8"?>
<svg width="256px" height="205px" viewBox="0 0 256 205" version="1.1" xmlns="http://www.w3.org/2000/svg" xmlns:xlink="http://www.w3.org/1999/xlink" preserveAspectRatio="xMidYMid">
    <g>
        <path d="M253.963604,185.07818 L138.764737,5.87994218 C136.40876,2.21597821 132.3528,0 127.996836,0 C123.640886,0 119.584926,2.21597821 117.228949,5.87994218 L2.03008161,185.07818 C-0.502202786,189.016944 -0.681686773,194.024087 1.56208622,198.134052 C3.80689174,202.242979 8.11583573,204.797986 12.7979757,204.797986 L243.19571,204.797986 C247.879664,204.797986 252.187622,202.242011 254.4316,198.130052 C256.675361,194.02149 256.495863,189.01549 253.963604,185.07818 Z M127.996843,36.4716414 L162.152507,89.599119 L127.996843,89.599119 L102.397095,115.198867 L87.1732444,99.975017 L127.996843,36.4716414 Z" fill="#000000" fill-rule="nonzero"></path>
    </g>
</svg>

<svg width="256" height="205" xmlns="http://www.w3.org/2000/svg" preserveAspectRatio="xMidYMid">
	<path d="M253.964 185.078 138.764 5.88A12.802 12.802 0 0 0 127.998 0a12.802 12.802 0 0 0-10.768 5.88L2.03 185.078a12.8 12.8 0 0 0-.468 13.056 12.803 12.803 0 0 0 11.236 6.664h230.398c4.684 0 8.992-2.556 11.236-6.668a12.793 12.793 0 0 0-.468-13.052ZM127.997 36.472l34.156 53.127h-34.156l-25.6 25.6-15.224-15.224 40.824-63.503Z"/>
</svg>
